X:73
T:Musical Priest
R:reel
C:Traditional
M:4/4
K:Bm
FBBA B2 Bd | cBAf edBA | FBBA B2 Bd |[1 cBAc B2 BA :|[2 cBAc B2 Bc |]
|: d2 dc dfed | (3(cBA) eA fAeA | dcBc defb | afed B2 Bc :|
|: dB B2 bafb | afed Bcde | dB B2 bafb |[1 afed B2 Bc :|[2 afed B2 BA |]

